X:1
T:Title
%%score { ( 1 3 4 ) | ( 2 5 ) }
L:1/8
Q:1/4=100
M:12/8
K:Bb
V:1 treble nm="Grand Piano"
V:3 treble 
V:4 treble 
V:2 bass 
V:5 bass 
V:1
 E3 EFC E3 F3 | G3 G_AE G6 | [B,DB]3 BcG B3 [=EBc]2 [EBc] | [FBd]3 [EG]2 [EAc] B6 | %4
w: Grace~Wilbur~Conant * * * * *||||
 =B3 B_dB _B3 F2 [DFB] | .[^F=B]6 z6 | [B,EBe]3 [F=Be][FBd][=B,FG] [EGd]3 [EGc]2 [_DG] | %7
w: |||
 [CB]3 [C_A]2[K:bass] [_A,B,D] [E,G,B,E]6 |] %8
w: |
V:2
 [E,G,B,]3 [E,_A,C][E,A,C][E,F,] [E,G,B,]3 [E,A,B,]3 | [E,B,E]3 [E,B,E][E,CE][E,_A,] [E,B,E]6 | %2
 G,,3[K:treble] [G,CE][G,A,E][G,CE] [G,DG]3 G,2[K:bass] G, | F,3 F,2 F,[K:treble] [B,DF]6 | %4
 [A,E^F]3 [A,EF][A,EF][A,EF] [B,D=F]3[K:bass] [B,D]2 B,, | A,,3 z ^FA,, B,,3 _A,,3 | %6
 G,,3 [G,,G,][G,,A,]G,, [C,G,]3 [C,G,]2 [B,,=E,] | [_A,,F,]3 F,G,B,, E,,6 |] %8
V:3
 x12 | x12 | x12 | x12 | x12 | E3 z _d[E^F=B] [D=F_B]6 | x12 | x5[K:bass] x7 |] %8
V:4
 x12 | x12 | x12 | x12 | x12 | z3 .E3 z6 | x12 | x5[K:bass] x7 |] %8
V:5
 x12 | x12 | x3[K:treble] x8[K:bass] x | x6[K:treble] x6 | x9[K:bass] x3 | z3 .A,,3 z6 | x12 | %7
 z3 .F,,3 z6 |] %8

